!!! OTL: Berkowitz296
!!! Chapter: 1
!!! Section: III
!!! Page: 71
!!! Mode: 
!!! Encoder: DJB
**kern
*staff1
*I"Piano
=1-
*clefC3
*k[f#c#]
*b:
*M3/4
4f#\
4.f#\
8g\
=2
4B/
2A#/
=3
4f#\
8cc#\L
8a#\J
8f#\L
8e\J
=4
4e\
2d\
=5
4a\
4.a\
8b\
=6
4d\
4.c#\
8d\
=7
8e\L
8f#\J
8g\L
8e\J
8d\L
8c#\J
=8
4c#\
2d\
=9
4f#\
4.g\
8g\
=10
4g#\
2a\
=11
!!linebreak:original
4g#\
4.a\
8a\
=12
4a#\
2b\
=13
4dd\
4.e\
8e\
=14
8d\L
8f#\J
4.b\
8B/
=15
8c#\L
8g\J
8f#\L
8e\J
8d\L
8c#\J
=16
8c#\L
8d\J
2B/
==
*-
